icons/op-installation-services-24.svg

<svg width="24" height="24" viewBox="0 0 24 24" fill="none" xmlns="http://www.w3.org/2000/svg">
<path d="M9.59834 15.9529H17.9793C18.8406 15.9529 19.47 15.2824 19.47 14.3647V7.58824C19.47 6.70588 18.8406 6 17.9793 6H6.12008C5.2588 6 4.6294 6.70588 4.6294 7.58824V14.3647C4.6294 15.2824 5.2588 15.9529 6.12008 15.9529H9.59834ZM5.68944 14.3647V7.58824C5.68944 7.37647 5.8882 7.12941 6.12008 7.12941H17.9793C18.2112 7.12941 18.4099 7.37647 18.4099 7.58824V14.3647C18.4099 14.6118 18.2112 14.8235 17.9793 14.8235H6.12008C5.8882 14.8235 5.68944 14.6118 5.68944 14.3647ZM10.6584 17.1882V16.8706H4V17.4353C4 17.7529 4.19876 18 4.53002 18H19.47C19.8012 18 20 17.7529 20 17.4353V16.8706H13.441V17.1882H10.6584ZM8.86957 13.8C8.86957 12 10.2609 10.5176 12.0497 10.5176C13.7391 10.5176 15.2298 12 15.2298 13.8H17.1511V12.5647H16.0911C15.9586 12.3529 15.9586 12.1059 15.8592 11.8941L16.8199 11.2235L16.0911 10.0941L15.1304 10.8706C14.8986 10.6588 14.6998 10.5176 14.6004 10.3059L15.1304 9.28235L13.971 8.61176L13.441 9.63529C13.2091 9.52941 12.911 9.52941 12.6791 9.38824V8.25882H11.4203V9.52941C11.1884 9.52941 10.9896 9.52941 10.7909 9.63529L10.2609 8.61176L9.20083 9.28235L9.73085 10.2C9.39959 10.3059 9.20083 10.5176 8.96894 10.7647L8.14079 10.0941L7.37888 11.2235L8.24017 11.7882C8.14079 12 8.00828 12.3529 7.9089 12.5647H7.18012V13.8H8.86957Z" fill="black"/>
</svg>

<svg xmlns="http://www.w3.org/2000/svg" width="24" height="24" viewBox="0 0 24 24"><path d="M9.598 15.953h8.381c.862 0 1.491-.671 1.491-1.588V7.588c0-.882-.629-1.588-1.491-1.588H6.12c-.861 0-1.491.706-1.491 1.588v6.777c0 .917.63 1.588 1.491 1.588h3.478Zm-3.909-1.588V7.588c0-.212.199-.459.431-.459h11.859c.232 0 .431.247.431.459v6.777c0 .247-.199.458-.431.458H6.12c-.232 0-.431-.211-.431-.458Zm4.969 2.823v-.317H4v.564c0 .318.199.565.53.565h14.94c.331 0 .53-.247.53-.565v-.564h-6.559v.317h-2.783ZM8.87 13.8c0-1.8 1.391-3.282 3.18-3.282 1.689 0 3.18 1.482 3.18 3.282h1.921v-1.235h-1.06c-.132-.212-.132-.459-.232-.671l.961-.671-.729-1.129-.961.777c-.231-.212-.43-.353-.53-.565l.53-1.024-1.159-.67-.53 1.023c-.232-.106-.53-.106-.762-.247V8.259H11.42v1.27c-.232 0-.43 0-.629.106l-.53-1.023-1.06.67.53.918c-.331.106-.53.318-.762.565l-.828-.671-.762 1.129.861.565c-.099.212-.232.565-.331.777H7.18V13.8h1.69Z"/></svg>
